packages/natds-icons/dist/svg/outlined-product-promotionproduct.svg

<svg viewBox="0 0 24 24" xmlns="http://www.w3.org/2000/svg">
  <path
    d="M8.043 16.596L4.397 12.95C4.14297 12.6951 4.00033 12.3499 4.00033 11.99C4.00033 11.6301 4.14297 11.2849 4.397 11.03L10.879 4.54599C11.109 4.31299 11.419 4.17199 11.746 4.14899L13.91 4.00299C14.305 3.97699 14.69 4.12499 14.964 4.40799L16.547 5.98399L16.553 5.97199L18.173 6.72599C18.537 6.90399 18.805 7.23299 18.902 7.62599L19.412 9.68399C19.488 9.99399 19.452 10.321 19.308 10.608L15.255 18.89C15.1443 19.1182 14.9717 19.3106 14.7569 19.4454C14.542 19.5801 14.2936 19.6517 14.04 19.652H14.032C13.823 19.6533 13.617 19.6032 13.432 19.506L8.805 17.236C8.63688 17.1319 8.48885 16.9985 8.368 16.842C8.24808 16.7765 8.13855 16.6936 8.043 16.596ZM17.039 7.16399L16.852 9.26999C16.8135 9.57666 16.6738 9.86172 16.455 10.08L9.972 16.565C9.89318 16.6481 9.80452 16.7213 9.708 16.783L13.788 18.777C13.8547 18.8053 13.9265 18.8199 13.999 18.8199C14.0715 18.8199 14.1433 18.8053 14.21 18.777C14.3338 18.7344 14.4377 18.648 14.502 18.534V18.493L18.554 10.219C18.607 10.1022 18.621 9.9714 18.594 9.84599L18.108 7.81999C18.0901 7.74213 18.0545 7.66946 18.0038 7.60769C17.9532 7.54592 17.8889 7.49674 17.816 7.46399L17.043 7.10399L17.039 7.16399ZM11.47 5.08899L4.987 11.573C4.93133 11.6247 4.88693 11.6874 4.85657 11.7571C4.82621 11.8268 4.81054 11.902 4.81054 11.978C4.81054 12.054 4.82621 12.1292 4.85657 12.1989C4.88693 12.2686 4.93133 12.3312 4.987 12.383L8.635 16.029C8.68652 16.0851 8.74912 16.1298 8.81883 16.1604C8.88854 16.1911 8.96386 16.2069 9.04 16.2069C9.11614 16.2069 9.19146 16.1911 9.26117 16.1604C9.33089 16.1298 9.39348 16.0851 9.445 16.029L15.928 9.54699C16.0239 9.45833 16.0822 9.33631 16.091 9.20599L16.277 7.09899C16.2852 7.01915 16.2756 6.93849 16.249 6.86277C16.2224 6.78706 16.1793 6.71816 16.123 6.66099L14.413 4.94299C14.3578 4.8858 14.2906 4.84159 14.2162 4.81358C14.1419 4.78556 14.0622 4.77443 13.983 4.78099L11.827 4.92699C11.6925 4.93555 11.5648 4.9932 11.47 5.08899ZM14.12 7.94099C13.9728 7.94284 13.8268 7.91519 13.6905 7.85967C13.5541 7.80415 13.4303 7.72188 13.3263 7.61772C13.2223 7.51357 13.1403 7.38964 13.0849 7.25324C13.0296 7.11684 13.0022 6.97075 13.0043 6.82357C13.0063 6.6764 13.0379 6.53113 13.097 6.39635C13.1561 6.26156 13.2417 6.13999 13.3486 6.0388C13.4554 5.93761 13.5815 5.85886 13.7193 5.8072C13.8572 5.75553 14.0039 5.732 14.151 5.73799C14.4379 5.74968 14.709 5.87292 14.9064 6.08148C15.1039 6.29004 15.2121 6.56743 15.208 6.85458C15.204 7.14174 15.088 7.41598 14.8848 7.6189C14.6816 7.82181 14.4072 7.93738 14.12 7.94099ZM14.12 6.55499C14.0821 6.54869 14.0434 6.54991 14.0059 6.55858C13.9685 6.56726 13.9332 6.58322 13.9019 6.60555C13.8707 6.62788 13.8442 6.65615 13.8238 6.68874C13.8035 6.72133 13.7898 6.7576 13.7835 6.79549C13.7772 6.83338 13.7784 6.87213 13.7871 6.90955C13.7958 6.94696 13.8117 6.9823 13.8341 7.01355C13.8564 7.0448 13.8847 7.07134 13.9172 7.09166C13.9498 7.11198 13.9861 7.12569 14.024 7.13199C14.1005 7.14472 14.179 7.12654 14.2421 7.08143C14.3052 7.03633 14.3478 6.96801 14.3605 6.89149C14.3732 6.81498 14.355 6.73654 14.3099 6.67343C14.2648 6.61033 14.1965 6.56772 14.12 6.55499Z"
    />
</svg>

<svg xmlns="http://www.w3.org/2000/svg" viewBox="0 0 24 24"><path d="M8.043 16.596L4.397 12.95a1.36 1.36 0 0 1 0-1.92l6.482-6.484c.23-.233.54-.374.867-.397l2.164-.146c.395-.026.78.122 1.054.405l1.583 1.576.006-.012 1.62.754c.364.178.632.507.729.9l.51 2.058c.076.31.04.637-.104.924l-4.053 8.282a1.353 1.353 0 0 1-1.215.762h-.008a1.273 1.273 0 0 1-.6-.146l-4.627-2.27a1.648 1.648 0 0 1-.437-.394 1.382 1.382 0 0 1-.325-.246zm8.996-9.432l-.187 2.106a1.388 1.388 0 0 1-.397.81l-6.483 6.485a1.412 1.412 0 0 1-.264.218l4.08 1.994a.54.54 0 0 0 .422 0 .535.535 0 0 0 .292-.243v-.041l4.052-8.274a.598.598 0 0 0 .04-.373l-.486-2.026a.517.517 0 0 0-.292-.356l-.773-.36-.004.06zM11.47 5.089l-6.483 6.484a.552.552 0 0 0 0 .81l3.648 3.646a.55.55 0 0 0 .81 0l6.483-6.482a.511.511 0 0 0 .163-.341l.186-2.107a.545.545 0 0 0-.154-.438l-1.71-1.718a.536.536 0 0 0-.43-.162l-2.156.146a.553.553 0 0 0-.357.162zm2.65 2.852a1.102 1.102 0 1 1-.028-2.203 1.102 1.102 0 0 1 .028 2.203zm0-1.386a.293.293 0 1 0-.096.578.293.293 0 0 0 .096-.578z"/></svg>
